X:8798
T:L'Estecheiru (Arrg.)
C:Beleño
S:Música Tradicional Asturiana, (C) Tello & Tito. Asturies, 2001.
S:http://pagina.de/MusTradAst <telloytito@asturies.org>
A:Asturies
G:Arrg.
Z:Tito
M:6/8
L:1/8
Q:3/8=120
K:F
|:"C"G2 E "C"G2 E|"Bb"FED "C"EDC|"C"G2 E "C"G2 G|
"Gm"BAG "F"AGF|"C"G2 E "C"G2 E|"Bb"FED "C"C3:|
|:"C"EFG "C"E2 C|"Dm"DEF "C"E2 C|"C"EFG "C"E2 C|
"Dm"DEF "C"E3|"C"EFG "C"E2 C|"Dm"DEF "C"E2 C|
"F"AGF "C"GFE|"Bb"FED "C"C3:|
|:"C"BAG "F"AGF|"C"G2 E "C"G2 G|"Gm"BAG "F"AGF|"C"G2- "C"G2- "C"G2|
"F"AGF "C"GFE|"F"F2 E "Gm"D2C|"C"DEF "F"EF E|[1 "C"C3 C3:|[2 "C"C6||


